assets/icons/network/wired-filled.svg

<?xml version="1.0" encoding="UTF-8" standalone="no"?>
<svg viewBox="0 0 24 24" height="24" width="24" version="1.1" id="svg10" sodipodi:docname="wired.svg" inkscape:version="1.1 (ce6663b3b7, 2021-05-25)"
   xmlns:inkscape="http://www.inkscape.org/namespaces/inkscape"
   xmlns:sodipodi="http://sodipodi.sourceforge.net/DTD/sodipodi-0.dtd"
   xmlns="http://www.w3.org/2000/svg"
   xmlns:svg="http://www.w3.org/2000/svg">
   <defs id="defs14" />
   <sodipodi:namedview id="namedview12" pagecolor="#ffffff" bordercolor="#666666" borderopacity="1.0" inkscape:pageshadow="2" inkscape:pageopacity="0.0" inkscape:pagecheckerboard="0" showgrid="true" inkscape:snap-page="true" inkscape:zoom="24.90625" inkscape:cx="7.327478" inkscape:cy="12.165621" inkscape:window-width="1920" inkscape:window-height="1043" inkscape:window-x="1920" inkscape:window-y="0" inkscape:window-maximized="1" inkscape:current-layer="svg10">
      <inkscape:grid type="xygrid" id="grid1024" />
      <inkscape:grid type="xygrid" id="grid895" dotted="true" spacingx="0.5" spacingy="0.5" empspacing="10" />
   </sodipodi:namedview>
   <path id="rect869" style="fill:#808080;fill-rule:evenodd;stroke-width:0.5;stroke-linecap:round;stroke-linejoin:round;fill-opacity:1" d="M 9 3 C 8.446 3 8 3.446 8 4 L 8 7 C 8 7.554 8.446 8 9 8 L 11 8 L 11 11 L 7.5 11 C 6.6944452 11 6.0379053 11.130063 5.5839844 11.583984 C 5.1300635 12.037905 5 12.694445 5 13.5 L 5 15 L 3 15 C 2.446 15 2 15.446 2 16 L 2 19 C 2 19.554 2.446 20 3 20 L 8 20 C 8.554 20 9 19.554 9 19 L 9 16 C 9 15.446 8.554 15 8 15 L 6 15 L 6 13.5 C 6 12.805556 6.1199372 12.462094 6.2910156 12.291016 C 6.4620941 12.119937 6.8055563 12 7.5 12 L 15.5 12 C 16.194444 12 16.537906 12.119937 16.708984 12.291016 C 16.880063 12.462094 17 12.805556 17 13.5 L 17 15 L 15 15 C 14.446 15 14 15.446 14 16 L 14 19 C 14 19.554 14.446 20 15 20 L 20 20 C 20.554 20 21 19.554 21 19 L 21 16 C 21 15.446 20.554 15 20 15 L 18 15 L 18 13.5 C 18 12.694445 17.869937 12.037905 17.416016 11.583984 C 16.962095 11.130063 16.305555 11 15.5 11 L 12 11 L 12 8 L 14 8 C 14.554 8 15 7.554 15 7 L 15 4 C 15 3.446 14.554 3 14 3 L 9 3 z " />
</svg>

<svg height="24" width="24" xmlns="http://www.w3.org/2000/svg"><path style="fill:gray;stroke-width:.5;stroke-linecap:round;stroke-linejoin:round;fill-opacity:1" d="M9 3c-.554 0-1 .446-1 1v3c0 .554.446 1 1 1h2v3H7.5c-.806 0-1.462.13-1.916.584C5.13 12.038 5 12.694 5 13.5V15H3c-.554 0-1 .446-1 1v3c0 .554.446 1 1 1h5c.554 0 1-.446 1-1v-3c0-.554-.446-1-1-1H6v-1.5c0-.694.12-1.038.291-1.209C6.462 12.12 6.806 12 7.5 12h8c.694 0 1.038.12 1.209.291.171.171.291.515.291 1.209V15h-2c-.554 0-1 .446-1 1v3c0 .554.446 1 1 1h5c.554 0 1-.446 1-1v-3c0-.554-.446-1-1-1h-2v-1.5c0-.806-.13-1.462-.584-1.916-.454-.454-1.11-.584-1.916-.584H12V8h2c.554 0 1-.446 1-1V4c0-.554-.446-1-1-1H9z"/></svg>
